packages/foundations/assets/icons/functional/images/arrows/chevron_up_28.svg

<svg width="28" height="28" viewBox="0 0 28 28" fill="none" xmlns="http://www.w3.org/2000/svg">
<g clip-path="url(#clip0_77_514)">
<path fill-rule="evenodd" clip-rule="evenodd" d="M21 18.375C21.492 18.375 21.875 18.019 21.875 17.5C21.8718 17.2672 21.7844 17.0434 21.629 16.87L14.629 9.871C14.4559 9.71583 14.2325 9.62847 14 9.625C13.7675 9.62838 13.5441 9.71575 13.371 9.871L6.371 16.871C6.21583 17.0441 6.12847 17.2675 6.125 17.5C6.125 17.719 6.207 17.937 6.371 18.129C6.563 18.293 6.781 18.375 7.001 18.375C7.23314 18.3714 7.45617 18.284 7.629 18.129L14 11.73L20.37 18.129C20.5435 18.2842 20.7672 18.3715 21 18.375Z" fill="#1A1C1F"/>
</g>
<defs>
<clipPath id="clip0_77_514">
<rect width="28" height="28" fill="white"/>
</clipPath>
</defs>
</svg>

<svg xmlns="http://www.w3.org/2000/svg" width="28" height="28" fill="none"><g clip-path="url(#a)"><path fill="#1A1C1F" fill-rule="evenodd" d="M21 18.375c.492 0 .875-.356.875-.875a.96.96 0 0 0-.246-.63l-7-6.999A.96.96 0 0 0 14 9.625a.96.96 0 0 0-.629.246l-7 7a.96.96 0 0 0-.246.629c0 .219.082.437.246.629.192.164.41.246.63.246a.96.96 0 0 0 .628-.246L14 11.73l6.37 6.399a.97.97 0 0 0 .63.246" clip-rule="evenodd"/></g><defs><clipPath id="a"><path fill="#fff" d="M0 0h28v28H0z"/></clipPath></defs></svg>
